; G-Code generated by Simplify3D(R) Version 3.0.2
; Feb 19, 2016 at 8:27:55 PM
; Settings Summary
;   processName,Z-605S Medium
;   applyToModels,20mm_hollow_cube
;   profileName,Z-605S Medium (modified)
;   profileVersion,2016-02-11 18:01:18
;   baseProfile,Default
;   printMaterial,PLA
;   printQuality,Medium
;   printExtruders,
;   extruderName,Extruder 1
;   extruderToolheadNumber,0
;   extruderDiameter,0.4
;   extruderAutoWidth,0
;   extruderWidth,0.4
;   extrusionMultiplier,0.9
;   extruderUseRetract,1
;   extruderRetractionDistance,4.5
;   extruderExtraRestartDistance,0
;   extruderRetractionZLift,0
;   extruderRetractionSpeed,40
;   extruderUseCoasting,0
;   extruderCoastingDistance,0.2
;   extruderUseWipe,0
;   extruderWipeDistance,5
;   primaryExtruder,0
;   layerHeight,0.2
;   topSolidLayers,6
;   bottomSolidLayers,6
;   perimeterOutlines,6
;   printPerimetersInsideOut,1
;   startPointOption,2
;   startPointOriginX,0
;   startPointOriginY,0
;   startPointOriginZ,300
;   sequentialIslands,0
;   spiralVaseMode,0
;   firstLayerHeightPercentage,90
;   firstLayerWidthPercentage,100
;   firstLayerUnderspeed,0.5
;   useRaft,0
;   raftExtruder,0
;   raftLayers,3
;   raftOffset,3
;   raftSeparationDistance,0.14
;   raftInfill,85
;   disableRaftBaseLayers,0
;   useSkirt,1
;   skirtExtruder,0
;   skirtLayers,1
;   skirtOutlines,20
;   skirtOffset,0
;   usePrimePillar,0
;   primePillarExtruder,999
;   primePillarWidth,12
;   primePillarLocation,7
;   primePillarSpeedMultiplier,1
;   useOozeShield,0
;   oozeShieldExtruder,999
;   oozeShieldOffset,2
;   oozeShieldOutlines,1
;   oozeShieldSidewallShape,1
;   oozeShieldSidewallAngle,30
;   oozeShieldSpeedMultiplier,1
;   infillExtruder,0
;   internalInfillPattern,Rectilinear
;   externalInfillPattern,Rectilinear
;   infillPercentage,20
;   outlineOverlapPercentage,15
;   infillExtrusionWidthPercentage,100
;   minInfillLength,5
;   infillLayerInterval,1
;   infillAngles,45,-45
;   overlapInfillAngles,0
;   generateSupport,1
;   supportExtruder,0
;   supportInfillPercentage,15
;   supportExtraInflation,0
;   denseSupportLayers,0
;   denseSupportInfillPercentage,70
;   supportLayerInterval,1
;   supportHorizontalPartOffset,0.7
;   supportUpperSeparationLayers,1
;   supportLowerSeparationLayers,1
;   supportType,0
;   supportGridSpacing,4
;   maxOverhangAngle,60
;   supportAngles,60
;   temperatureName,Extruder 1 Temperature,Heated Bed
;   temperatureNumber,0,0
;   temperatureSetpointCount,1,1
;   temperatureSetpointLayers,1,1
;   temperatureSetpointTemperatures,200,65
;   temperatureStabilizeAtStartup,1,1
;   temperatureHeatedBed,0,1
;   temperatureRelayBetweenLayers,0,0
;   temperatureRelayBetweenLoops,0,0
;   fanLayers,1,2
;   fanSpeeds,0,100
;   blipFanToFullPower,0
;   adjustSpeedForCooling,1
;   minSpeedLayerTime,15
;   minCoolingSpeedSlowdown,20
;   increaseFanForCooling,0
;   minFanLayerTime,45
;   maxCoolingFanSpeed,100
;   increaseFanForBridging,0
;   bridgingFanSpeed,100
;   use5D,1
;   relativeEdistances,0
;   allowEaxisZeroing,1
;   independentExtruderAxes,0
;   includeM10123,0
;   stickySupport,1
;   applyToolheadOffsets,0
;   gcodeXoffset,40
;   gcodeYoffset,0
;   gcodeZoffset,0
;   overrideMachineDefinition,1
;   machineTypeOverride,0
;   strokeXoverride,190
;   strokeYoverride,190
;   strokeZoverride,180
;   originOffsetXoverride,0
;   originOffsetYoverride,0
;   originOffsetZoverride,0
;   homeXdirOverride,-1
;   homeYdirOverride,-1
;   homeZdirOverride,-1
;   flipXoverride,1
;   flipYoverride,-1
;   flipZoverride,1
;   toolheadOffsets,0,0|0,0|0,0|0,0|0,0|0,0
;   overrideFirmwareConfiguration,1
;   firmwareTypeOverride,RepRap (Marlin/Repetier/Sprinter)
;   GPXconfigOverride,r2
;   baudRateOverride,250000
;   overridePrinterModels,0
;   printerModelsOverride
;   startingGcode,G28 ; home all axes
;   layerChangeGcode,
;   retractionGcode,
;   toolChangeGcode,
;   endingGcode,M104 S0 ; turn off extruder,M140 S0 ; turn off bed,M84 ; disable motors
;   createX3G,0
;   celebration,0
;   celebrationSong,Random Song
;   createMB5G,0
;   postProcessing,
;   defaultSpeed,3600
;   outlineUnderspeed,0.5
;   solidInfillUnderspeed,0.8
;   supportUnderspeed,0.8
;   rapidXYspeed,4800
;   rapidZspeed,1000
;   minBridgingArea,50
;   bridgingExtraInflation,0
;   bridgingExtrusionMultiplier,1
;   bridgingSpeedMultiplier,1
;   filamentDiameter,1.75
;   filamentPricePerKg,46
;   filamentDensity,1.25
;   useMinPrintHeight,0
;   minPrintHeight,0
;   useMaxPrintHeight,0
;   maxPrintHeight,0
;   useDiaphragm,0
;   diaphragmLayerInterval,20
;   robustSlicing,1
;   mergeAllIntoSolid,0
;   onlyRetractWhenCrossingOutline,1
;   retractBetweenLayers,1
;   useRetractionMinTravel,0
;   retractionMinTravel,3
;   retractWhileWiping,0
;   onlyWipeOutlines,1
;   avoidCrossingOutline,0
;   maxMovementDetourFactor,3
;   toolChangeRetractionDistance,12
;   toolChangeExtraRestartDistance,-0.5
;   toolChangeRetractionSpeed,600
;   allowThinWallGapFill,1
;   thinWallAllowedOverlapPercentage,10
;   horizontalSizeCompensation,0
G90
M82
M106 S0
M140 S65
M190 S65
M104 S200 T0
M109 S200 T0
G28 ; home all axes
G92 E0
G1 E-4.5000 F40
G1 Z0.180 F1000
; layer 1, Z = 0.18
T0
; tool H0.200 W0.400
; skirt
G1 X117.200 Y81.769 F4800
G1 E0.0000 F12
G92 E0
G1 X121.769 Y77.200 E0.1934 F1800
G1 X148.231 Y77.200 E0.9855
G1 X152.800 Y81.769 E1.1790
G1 X152.800 Y108.231 E1.9711
G1 X148.231 Y112.800 E2.1645
G1 X121.769 Y112.800 E2.9566
G1 X117.200 Y108.231 E3.1500
G1 X117.200 Y81.769 E3.9421
G1 X117.600 Y81.935 F4800
G92 E0
G1 X121.935 Y77.600 E0.1835 F1800
G1 X148.065 Y77.600 E0.9657
G1 X152.400 Y81.935 E1.1492
G1 X152.400 Y108.065 E1.9314
G1 X148.065 Y112.400 E2.1149
G1 X121.935 Y112.400 E2.8971
G1 X117.600 Y108.065 E3.0806
G1 X117.600 Y81.935 E3.8628
G1 X118.000 Y82.101 F4800
G92 E0
G1 X122.101 Y78.000 E0.1736 F1800
G1 X147.899 Y78.000 E0.9459
G1 X152.000 Y82.101 E1.1194
G1 X152.000 Y107.899 E1.8917
G1 X147.899 Y112.000 E2.0653
G1 X122.101 Y112.000 E2.8376
G1 X118.000 Y107.899 E3.0112
G1 X118.000 Y82.101 E3.7834
G1 X118.400 Y82.266 F4800
G92 E0
G1 X122.266 Y78.400 E0.1637 F1800
G1 X147.734 Y78.400 E0.9260
G1 X151.600 Y82.266 E1.0897
G1 X151.600 Y107.734 E1.8520
G1 X147.734 Y111.600 E2.0157
G1 X122.266 Y111.600 E2.7781
G1 X118.400 Y107.734 E2.9417
G1 X118.400 Y82.266 E3.7041
G1 X118.800 Y82.432 F4800
G92 E0
G1 X122.432 Y78.800 E0.1537 F1800
G1 X147.568 Y78.800 E0.9062
G1 X151.200 Y82.432 E1.0599
G1 X151.200 Y107.568 E1.8124
G1 X147.568 Y111.200 E1.9661
G1 X122.432 Y111.200 E2.7185
G1 X118.800 Y107.568 E2.8723
G1 X118.800 Y82.432 E3.6247
G1 X119.200 Y82.598 F4800
G92 E0
G1 X122.598 Y79.200 E0.1438 F1800
G1 X147.402 Y79.200 E0.8863
G1 X150.800 Y82.598 E1.0302
G1 X150.800 Y107.402 E1.7727
G1 X147.402 Y110.800 E1.9165
G1 X122.598 Y110.800 E2.6590
G1 X119.200 Y107.402 E2.8029
G1 X119.200 Y82.598 E3.5454
G1 X119.600 Y82.763 F4800
G92 E0
G1 X122.763 Y79.600 E0.1339 F1800
G1 X147.237 Y79.600 E0.8665
G1 X150.400 Y82.763 E1.0004
G1 X150.400 Y107.237 E1.7330
G1 X147.237 Y110.400 E1.8669
G1 X122.763 Y110.400 E2.5995
G1 X119.600 Y107.237 E2.7334
G1 X119.600 Y82.763 E3.4660
G1 X120.000 Y82.929 F4800
G92 E0
G1 X122.929 Y80.000 E0.1240 F1800
G1 X147.071 Y80.000 E0.8467
G1 X150.000 Y82.929 E0.9707
G1 X150.000 Y107.071 E1.6933
G1 X147.071 Y110.000 E1.8173
G1 X122.929 Y110.000 E2.5400
G1 X120.000 Y107.071 E2.6640
G1 X120.000 Y82.929 E3.3867
G1 X120.400 Y83.095 F4800
G92 E0
G1 X123.095 Y80.400 E0.1141 F1800
G1 X146.905 Y80.400 E0.8268
G1 X149.600 Y83.095 E0.9409
G1 X149.600 Y106.905 E1.6537
G1 X146.905 Y109.600 E1.7677
G1 X123.095 Y109.600 E2.4805
G1 X120.400 Y106.905 E2.5946
G1 X120.400 Y83.095 E3.3073
G1 X120.800 Y83.260 F4800
G92 E0
G1 X123.260 Y80.800 E0.1042 F1800
G1 X146.740 Y80.800 E0.8070
G1 X149.200 Y83.260 E0.9111
G1 X149.200 Y106.740 E1.6140
G1 X146.740 Y109.200 E1.7181
G1 X123.260 Y109.200 E2.4210
G1 X120.800 Y106.740 E2.5251
G1 X120.800 Y83.260 E3.2280
G1 X121.200 Y83.426 F4800
G92 E0
G1 X123.426 Y81.200 E0.0942 F1800
G1 X146.574 Y81.200 E0.7871
G1 X148.800 Y83.426 E0.8814
G1 X148.800 Y106.574 E1.5743
G1 X146.574 Y108.800 E1.6685
G1 X123.426 Y108.800 E2.3614
G1 X121.200 Y106.574 E2.4557
G1 X121.200 Y83.426 E3.1486
G1 X121.600 Y83.592 F4800
G92 E0
G1 X123.592 Y81.600 E0.0843 F1800
G1 X146.408 Y81.600 E0.7673
G1 X148.400 Y83.592 E0.8516
G1 X148.400 Y106.408 E1.5346
G1 X146.408 Y108.400 E1.6189
G1 X123.592 Y108.400 E2.3019
G1 X121.600 Y106.408 E2.3862
G1 X121.600 Y83.592 E3.0692
G1 X122.000 Y83.757 F4800
G92 E0
G1 X123.757 Y82.000 E0.0744 F1800
G1 X146.243 Y82.000 E0.7475
G1 X148.000 Y83.757 E0.8219
G1 X148.000 Y106.243 E1.4949
G1 X146.243 Y108.000 E1.5693
G1 X123.757 Y108.000 E2.2424
G1 X122.000 Y106.243 E2.3168
G1 X122.000 Y83.757 E2.9899
G1 X122.400 Y83.923 F4800
G92 E0
G1 X123.923 Y82.400 E0.0645 F1800
G1 X146.077 Y82.400 E0.7276
G1 X147.600 Y83.923 E0.7921
G1 X147.600 Y106.077 E1.4553
G1 X146.077 Y107.600 E1.5197
G1 X123.923 Y107.600 E2.1829
G1 X122.400 Y106.077 E2.2474
G1 X122.400 Y83.923 E2.9105
G1 X122.800 Y84.089 F4800
G92 E0
G1 X124.089 Y82.800 E0.0546 F1800
G1 X145.911 Y82.800 E0.7078
G1 X147.200 Y84.089 E0.7624
G1 X147.200 Y105.911 E1.4156
G1 X145.911 Y107.200 E1.4701
G1 X124.089 Y107.200 E2.1234
G1 X122.800 Y105.911 E2.1779
G1 X122.800 Y84.089 E2.8312
G1 X123.200 Y84.254 F4800
G92 E0
G1 X124.254 Y83.200 E0.0446 F1800
G1 X145.746 Y83.200 E0.6880
G1 X146.800 Y84.254 E0.7326
G1 X146.800 Y105.746 E1.3759
G1 X145.746 Y106.800 E1.4205
G1 X124.254 Y106.800 E2.0639
G1 X123.200 Y105.746 E2.1085
G1 X123.200 Y84.254 E2.7518
G1 X123.600 Y84.420 F4800
G92 E0
G1 X124.420 Y83.600 E0.0347 F1800
G1 X145.580 Y83.600 E0.6681
G1 X146.400 Y84.420 E0.7028
G1 X146.400 Y105.580 E1.3362
G1 X145.580 Y106.400 E1.3710
G1 X124.420 Y106.400 E2.0044
G1 X123.600 Y105.580 E2.0391
G1 X123.600 Y84.420 E2.6725
G1 X124.000 Y84.586 F4800
G92 E0
G1 X124.586 Y84.000 E0.0248 F1800
G1 X145.414 Y84.000 E0.6483
G1 X146.000 Y84.586 E0.6731
G1 X146.000 Y105.414 E1.2966
G1 X145.414 Y106.000 E1.3214
G1 X124.586 Y106.000 E1.9448
G1 X124.000 Y105.414 E1.9696
G1 X124.000 Y84.586 E2.5931
G1 X124.400 Y84.751 F4800
G92 E0
G1 X124.751 Y84.400 E0.0149 F1800
G1 X145.249 Y84.400 E0.6284
G1 X145.600 Y84.751 E0.6433
G1 X145.600 Y105.249 E1.2569
G1 X145.249 Y105.600 E1.2718
G1 X124.751 Y105.600 E1.8853
G1 X124.400 Y105.249 E1.9002
G1 X124.400 Y84.751 E2.5138
G1 X124.800 Y84.917 F4800
G92 E0
G1 X124.917 Y84.800 E0.0050 F1800
G1 X145.083 Y84.800 E0.6086
G1 X145.200 Y84.917 E0.6136
G1 X145.200 Y105.083 E1.2172
G1 X145.083 Y105.200 E1.2222
G1 X124.917 Y105.200 E1.8258
G1 X124.800 Y105.083 E1.8308
G1 X124.800 Y84.917 E2.4344
G92 E0
G1 E-4.5000 F40
; inner perimeter
G1 X127.200 Y87.200 F4800
G1 E0.0000 F40
G92 E0
G1 X142.800 Y87.200 E0.4670 F1650
G1 X142.800 Y102.800 E0.9339
G1 X127.200 Y102.800 E1.4009
G1 X127.200 Y87.200 E1.8679
; inner perimeter
G1 X126.800 Y86.800 F4800
G92 E0
G1 X143.200 Y86.800 E0.4909 F1500
G1 X143.200 Y103.200 E0.9818
G1 X126.800 Y103.200 E1.4728
G1 X126.800 Y86.800 E1.9637
; inner perimeter
G1 X126.400 Y86.400 F4800
G92 E0
G1 X143.600 Y86.400 E0.5149 F1350
G1 X143.600 Y103.600 E1.0297
G1 X126.400 Y103.600 E1.5446
G1 X126.400 Y86.400 E2.0595
; inner perimeter
G1 X126.000 Y86.000 F4800
G92 E0
G1 X144.000 Y86.000 E0.5388 F1200
G1 X144.000 Y104.000 E1.0776
G1 X126.000 Y104.000 E1.6164
G1 X126.000 Y86.000 E2.1553
; inner perimeter
G1 X125.600 Y85.600 F4800
G92 E0
G1 X144.400 Y85.600 E0.5628 F1050
G1 X144.400 Y104.400 E1.1255
G1 X125.600 Y104.400 E1.6883
G1 X125.600 Y85.600 E2.2510
; outer perimeter
G1 X125.200 Y85.200 F4800
G92 E0
G1 X144.800 Y85.200 E0.5867 F900
G1 X144.800 Y104.800 E1.1734
G1 X125.200 Y104.800 E1.7601
G1 X125.200 Y85.200 E2.3468
; solid layer
G1 X127.540 Y87.752 F4800
G92 E0
G1 X127.752 Y87.540 E0.0090 F1440
G1 X128.318 Y87.540 E0.0259
G1 X127.540 Y88.318 E0.0588
G1 X127.540 Y88.884 E0.0758
G1 X128.884 Y87.540 E0.1327
G1 X129.449 Y87.540 E0.1496
G1 X127.540 Y89.449 E0.2304
G1 X127.540 Y90.015 E0.2474
G1 X130.015 Y87.540 E0.3521
G1 X130.581 Y87.540 E0.3691
G1 X127.540 Y90.581 E0.4978
G1 X127.540 Y91.146 E0.5147
G1 X131.146 Y87.540 E0.6674
G1 X131.712 Y87.540 E0.6843
G1 X127.540 Y91.712 E0.8609
G1 X127.540 Y92.278 E0.8779
G1 X132.278 Y87.540 E1.0784
G1 X132.843 Y87.540 E1.0954
G1 X127.540 Y92.843 E1.3199
G1 X127.540 Y93.409 E1.3368
G1 X133.409 Y87.540 E1.5853
G1 X133.975 Y87.540 E1.6022
G1 X127.540 Y93.975 E1.8746
G1 X127.540 Y94.540 E1.8915
G1 X134.540 Y87.540 E2.1879
G1 X135.106 Y87.540 E2.2048
G1 X127.540 Y95.106 E2.5251
G1 X127.540 Y95.672 E2.5420
G1 X135.672 Y87.540 E2.8863
G1 X136.237 Y87.540 E2.9032
G1 X127.540 Y96.237 E3.2714
G1 X127.540 Y96.803 E3.2883
G1 X136.803 Y87.540 E3.6805
G1 X137.369 Y87.540 E3.6974
G1 X127.540 Y97.369 E4.1135
G1 X127.540 Y97.935 E4.1304
G1 X137.935 Y87.540 E4.5705
G1 X138.500 Y87.540 E4.5874
G1 X127.540 Y98.500 E5.0514
G1 X127.540 Y99.066 E5.0683
G1 X139.066 Y87.540 E5.5563
G1 X139.632 Y87.540 E5.5732
G1 X127.540 Y99.632 E6.0851
G1 X127.540 Y100.197 E6.1020
G1 X140.197 Y87.540 E6.6378
G1 X140.763 Y87.540 E6.6548
G1 X127.540 Y100.763 E7.2145
G1 X127.540 Y101.329 E7.2315
G1 X141.329 Y87.540 E7.8152
G1 X141.894 Y87.540 E7.8321
G1 X127.540 Y101.894 E8.4398
G1 X127.540 Y102.460 E8.4567
G1 X127.540 Y102.460 E8.4567
G1 X142.460 Y87.540 E9.0883
G1 X142.460 Y88.106 E9.1053
G1 X128.106 Y102.460 E9.7129
G1 X128.671 Y102.460 E9.7299
G1 X142.460 Y88.671 E10.3136
G1 X142.460 Y89.237 E10.3305
G1 X129.237 Y102.460 E10.8903
G1 X129.803 Y102.460 E10.9072
G1 X142.460 Y89.803 E11.4430
G1 X142.460 Y90.368 E11.4600
G1 X130.368 Y102.460 E11.9718
G1 X130.934 Y102.460 E11.9888
G1 X142.460 Y90.934 E12.4767
G1 X142.460 Y91.500 E12.4936
G1 X131.500 Y102.460 E12.9576
G1 X132.066 Y102.460 E12.9745
G1 X142.460 Y92.066 E13.4146
G1 X142.460 Y92.631 E13.4315
G1 X132.631 Y102.460 E13.8476
G1 X133.197 Y102.460 E13.8645
G1 X142.460 Y93.197 E14.2567
G1 X142.460 Y93.763 E14.2736
G1 X133.763 Y102.460 E14.6418
G1 X134.328 Y102.460 E14.6587
G1 X142.460 Y94.328 E15.0030
G1 X142.460 Y94.894 E15.0199
G1 X134.894 Y102.460 E15.3402
G1 X135.460 Y102.460 E15.3571
G1 X142.460 Y95.460 E15.6535
G1 X142.460 Y96.025 E15.6704
G1 X136.025 Y102.460 E15.9428
G1 X136.591 Y102.460 E15.9597
G1 X142.460 Y96.591 E16.2082
G1 X142.460 Y97.157 E16.2251
G1 X137.157 Y102.460 E16.4496
G1 X137.722 Y102.460 E16.4666
G1 X142.460 Y97.722 E16.6671
G1 X142.460 Y98.288 E16.6841
G1 X138.288 Y102.460 E16.8607
G1 X138.854 Y102.460 E16.8776
G1 X142.460 Y98.854 E17.0303
G1 X142.460 Y99.419 E17.0472
G1 X139.419 Y102.460 E17.1759
G1 X139.985 Y102.460 E17.1929
G1 X142.460 Y99.985 E17.2976
G1 X142.460 Y100.551 E17.3146
G1 X140.551 Y102.460 E17.3954
G1 X141.116 Y102.460 E17.4123
G1 X142.460 Y101.116 E17.4692
G1 X142.460 Y101.682 E17.4861
G1 X141.682 Y102.460 E17.5190
G1 X142.248 Y102.460 E17.5360
G1 X142.460 Y102.248 E17.5450
G92 E0
G1 E-4.5000 F40
; layer 2, Z = 0.38
M106 S255
; inner perimeter
G1 X142.800 Y102.800 F4800
G1 Z0.380 F1000
G1 E0.0000 F40
G92 E0
G1 X127.200 Y102.800 E0.4670 F3300
G1 X127.200 Y87.200 E0.9339
G1 X142.800 Y87.200 E1.4009
G1 X142.800 Y102.800 E1.8679
; inner perimeter
G1 X143.200 Y103.200 F4800
G92 E0
G1 X126.800 Y103.200 E0.4909 F3000
G1 X126.800 Y86.800 E0.9818
G1 X143.200 Y86.800 E1.4728
G1 X143.200 Y103.200 E1.9637
; inner perimeter
G1 X143.600 Y103.600 F4800
G92 E0
G1 X126.400 Y103.600 E0.5149 F2700
G1 X126.400 Y86.400 E1.0297
G1 X143.600 Y86.400 E1.5446
G1 X143.600 Y103.600 E2.0595
; inner perimeter
G1 X144.000 Y104.000 F4800
G92 E0
G1 X126.000 Y104.000 E0.5388 F2400
G1 X126.000 Y86.000 E1.0776
G1 X144.000 Y86.000 E1.6164
G1 X144.000 Y104.000 E2.1553
; inner perimeter
G1 X144.400 Y104.400 F4800
G92 E0
G1 X125.600 Y104.400 E0.5628 F2100
G1 X125.600 Y85.600 E1.1255
G1 X144.400 Y85.600 E1.6883
G1 X144.400 Y104.400 E2.2510
; outer perimeter
G1 X144.800 Y104.800 F4800
G92 E0
G1 X125.200 Y104.800 E0.5867 F1800
G1 X125.200 Y85.200 E1.1734
G1 X144.800 Y85.200 E1.7601
G1 X144.800 Y104.800 E2.3468
; solid layer
G1 X127.752 Y102.460 F4800
G92 E0
G1 X127.540 Y102.248 E0.0090 F2880
G1 X127.540 Y101.682 E0.0259
G1 X128.318 Y102.460 E0.0588
